src/images/archiveIcon.svg

<svg xmlns="http://www.w3.org/2000/svg" height="24px" viewBox="0 -960 960 960" width="24px" fill="#e8eaed"><path d="m480-240 160-160-56-56-64 64v-168h-80v168l-64-64-56 56 160 160ZM200-640v440h560v-440H200Zm0 520q-33 0-56.5-23.5T120-200v-499q0-14 4.5-27t13.5-24l50-61q11-14 27.5-21.5T250-840h460q18 0 34.5 7.5T772-811l50 61q9 11 13.5 24t4.5 27v499q0 33-23.5 56.5T760-120H200Zm16-600h528l-34-40H250l-34 40Zm264 300Z"/></svg>

<?xml version="1.0" encoding="UTF-8" standalone="no" ?>
<!DOCTYPE svg PUBLIC "-//W3C//DTD SVG 1.1//EN" "http://www.w3.org/Graphics/SVG/1.1/DTD/svg11.dtd">
<svg xmlns="http://www.w3.org/2000/svg" xmlns:xlink="http://www.w3.org/1999/xlink" version="1.1" width="1080" height="1080" viewBox="0 0 1080 1080" xml:space="preserve">
<desc>Created with Fabric.js 5.2.4</desc>
<defs>
</defs>
<rect x="0" y="0" width="100%" height="100%" fill="transparent"></rect>
<g transform="matrix(1 0 0 1 540 540)" id="bdee173c-fdbc-4008-be7b-14fe5526d0a9"  >
<rect style="stroke: none; stroke-width: 1; stroke-dasharray: none; stroke-linecap: butt; stroke-dashoffset: 0; stroke-linejoin: miter; stroke-miterlimit: 4; fill: rgb(255,255,255); fill-rule: nonzero; opacity: 1; visibility: hidden;" vector-effect="non-scaling-stroke"  x="-540" y="-540" rx="0" ry="0" width="1080" height="1080" />
</g>
<g transform="matrix(1 0 0 1 540 540)" id="9d21b5aa-0158-407e-a506-fcb85b578ff6"  >
</g>
<g transform="matrix(NaN NaN NaN NaN 0 0)"  >
<g style=""   >
</g>
</g>
<g transform="matrix(NaN NaN NaN NaN 0 0)"  >
<g style=""   >
</g>
</g>
<g transform="matrix(1 0 0 1 540 540)" id="8bd65d87-e009-4dcc-b9d8-5fdf9e21eb75"  >
<path style="stroke: rgb(0,0,0); stroke-width: 0; stroke-dasharray: none; stroke-linecap: butt; stroke-dashoffset: 0; stroke-linejoin: miter; stroke-miterlimit: 4; fill: rgb(58,57,237); fill-rule: nonzero; opacity: 1;" vector-effect="non-scaling-stroke"  transform=" translate(-480, 480)" d="M 480 -240 L 640 -400 L 584 -456 L 520 -392 L 520 -560 L 440 -560 L 440 -392 L 376 -456 L 320 -400 L 480 -240 Z M 200 -640 L 200 -200 L 760 -200 L 760 -640 L 200 -640 Z M 200 -120 Q 167 -120 143.5 -143.5 Q 120 -167 120 -200 L 120 -699 Q 120 -713 124.5 -726 Q 129 -739 138 -750 L 188 -811 Q 199 -825 215.5 -832.5 Q 232 -840 250 -840 L 710 -840 Q 728 -840 744.5 -832.5 Q 761 -825 772 -811 L 822 -750 Q 831 -739 835.5 -726 Q 840 -713 840 -699 L 840 -200 Q 840 -167 816.5 -143.5 Q 793 -120 760 -120 L 200 -120 Z M 216 -720 L 744 -720 L 710 -760 L 250 -760 L 216 -720 Z M 480 -420 Z" stroke-linecap="round" />
</g>
<g transform="matrix(NaN NaN NaN NaN 0 0)"  >
<g style=""   >
</g>
</g>
</svg>
